X: 1
T: Gingerhog's
M: 9/8
L: 1/8
R: slip jig
K: Dmaj
|: Add fdd (e2 f) | Add e<fd GdB | Add fdd (e2 f) | GBd Afd e3 :|
|: aAf- fef def | aAf e<fA B3 | aAf fed BA(F | G)Bd Afd e3 :|
